X: 496
%
U:~=!turn!
T: Mrs. Ross
C:Pipe tune.
O:Scotland
B:Keith Norman MacDonald : "The Skye collection of the best reels & strathspeys extant" : 1887
Z:Ralph Palmer
R:Strathspey
M:C
L:1/8
K:A
A<A e>A f>Ae>c | A<Ae>c de f2 | A<A e>A f>Ae>c | g>BB>c de [1 ((3fga) :| [2 f2 || da af e>dc>A | ea a2 de f2 |
ea af e>dc>A | f>BB>c de f2 | e<a af e>dc>A | ea a2 de g2 | a/g/f ge f>de>c | g>BB>c de ((3fga) |]


